message-text-clock.svg

<svg fill="currentColor" viewBox="0 0 24 24"><path d="M22 12.41V4a2 2 0 0 0-2-2H4c-1.1 0-2 .9-2 2v18l4-4h3.29A7.001 7.001 0 0 0 23 16c0-1.31-.37-2.54-1-3.59M6 6h12v2H6zm10 3c-1.9 0-3.63.77-4.89 2H6V9zM6 12h4.26c-.42.6-.76 1.28-.96 2H6zm10 8.85c-2.68 0-4.85-2.17-4.85-4.85s2.17-4.85 4.85-4.85c2.67 0 4.85 2.17 4.85 4.85s-2.18 4.85-4.85 4.85m.5-5.03 2.44 1.41-.75 1.3L15 16.69V13h1.5z"/></svg>

<svg  viewBox="0 0 24 24" fill="currentColor"><path  d="M22 12.41V4C22 2.9 21.11 2 20 2H4C2.9 2 2 2.9 2 4V22L6 18H9.29C10.15 20.89 12.83 23 16 23C19.86 23 23 19.87 23 16C23 14.69 22.63 13.46 22 12.41M6 6H18V8H6V6M16 9C14.1 9 12.37 9.77 11.11 11H6V9H16M6 12H10.26C9.84 12.6 9.5 13.28 9.3 14H6V12M16 20.85C13.32 20.85 11.15 18.68 11.15 16S13.32 11.15 16 11.15C18.67 11.15 20.85 13.32 20.85 16S18.67 20.85 16 20.85M16.5 15.82L18.94 17.23L18.19 18.53L15 16.69V13H16.5V15.82Z"/></svg>
